humanity-icon-theme/Humanity-Dark/places/24/start-here.svg

<?xml version="1.0" encoding="UTF-8" standalone="no"?>
<!-- Created with Inkscape (http://www.inkscape.org/) -->

<svg
   xmlns:dc="http://purl.org/dc/elements/1.1/"
   xmlns:cc="http://creativecommons.org/ns#"
   xmlns:rdf="http://www.w3.org/1999/02/22-rdf-syntax-ns#"
   xmlns:svg="http://www.w3.org/2000/svg"
   xmlns="http://www.w3.org/2000/svg"
   xmlns:sodipodi="http://sodipodi.sourceforge.net/DTD/sodipodi-0.dtd"
   xmlns:inkscape="http://www.inkscape.org/namespaces/inkscape"
   version="1.1"
   width="24"
   height="24"
   id="svg2864"
   inkscape:version="0.47 r22583"
   sodipodi:docname="start-here.svg">
  <metadata
     id="metadata13">
    <rdf:RDF>
      <cc:Work
         rdf:about="">
        <dc:format>image/svg+xml</dc:format>
        <dc:type
           rdf:resource="http://purl.org/dc/dcmitype/StillImage" />
      </cc:Work>
    </rdf:RDF>
  </metadata>
  <sodipodi:namedview
     pagecolor="#ffffff"
     bordercolor="#666666"
     borderopacity="1"
     objecttolerance="10"
     gridtolerance="10"
     guidetolerance="10"
     inkscape:pageopacity="0"
     inkscape:pageshadow="2"
     inkscape:window-width="645"
     inkscape:window-height="480"
     id="namedview11"
     showgrid="false"
     inkscape:zoom="14.125"
     inkscape:cx="0.24778761"
     inkscape:cy="12"
     inkscape:window-x="0"
     inkscape:window-y="24"
     inkscape:window-maximized="0"
     inkscape:current-layer="svg2864" />
  <defs
     id="defs2866">
    <inkscape:perspective
       sodipodi:type="inkscape:persp3d"
       inkscape:vp_x="0 : 12 : 1"
       inkscape:vp_y="0 : 1000 : 0"
       inkscape:vp_z="24 : 12 : 1"
       inkscape:persp3d-origin="12 : 8 : 1"
       id="perspective15" />
    <inkscape:perspective
       id="perspective3608"
       inkscape:persp3d-origin="0.5 : 0.33333333 : 1"
       inkscape:vp_z="1 : 0.5 : 1"
       inkscape:vp_y="0 : 1000 : 0"
       inkscape:vp_x="0 : 0.5 : 1"
       sodipodi:type="inkscape:persp3d" />
    <filter
       inkscape:collect="always"
       id="filter3674"
       x="-0.13534241"
       width="1.2706848"
       y="-0.1288187"
       height="1.2576374">
      <feGaussianBlur
         inkscape:collect="always"
         stdDeviation="0.96726768"
         id="feGaussianBlur3676" />
    </filter>
  </defs>
  <path
     style="fill:#ffffff;fill-opacity:1;overflow:visible"
     d="M 17.25 3 A 1.5 1.5 0 0 0 16 4.5 A 1.5 1.5 0 0 0 19 4.5 A 1.5 1.5 0 0 0 17.25 3 z M 12.53125 4.6875 C 11.883978 4.6894197 11.242247 4.8364142 10.5 5.1875 L 11.78125 7.75 C 14.223909 7.0601185 16.356412 8.6276318 17.1875 11.15625 L 20.15625 11.15625 C 19.870948 9.6790345 19.260122 8.1737025 18.21875 7.0625 C 17.49184 7.4336834 16.599418 7.4631727 15.84375 7.03125 C 15.088859 6.5995313 14.66398 5.8078704 14.625 5 C 13.823341 4.8143456 13.178522 4.6855803 12.53125 4.6875 z M 9 5.8125 C 7.7349537 6.6898707 6.4926313 8.377519 6.15625 9.96875 C 7.0896331 10.453987 7.5597642 11.20461 7.59375 12.46875 C 7.6256623 13.655762 6.9044667 14.42718 6.25 14.90625 C 6.8296715 16.029538 8.0916473 17.641422 9.1875 18.15625 L 10.40625 15.21875 C 8.6946361 13.903973 8.067144 11.041982 10.40625 8.6875 L 9 5.8125 z M 4.40625 10.96875 A 1.5000001 1.5000001 0 0 0 3.84375 13.8125 A 1.5000001 1.5000001 0 1 0 5.1875 11.125 A 1.5000001 1.5000001 0 0 0 4.40625 10.96875 z M 17.1875 12.875 C 16.507887 15.347108 14.610019 16.89867 11.9375 16.15625 L 10.75 18.9375 C 12.172254 19.401987 12.991889 19.453568 14.5625 19.03125 C 14.607777 18.221551 15.052405 17.469906 15.8125 17.03125 C 16.572759 16.5925 17.463609 16.571689 18.1875 16.9375 C 19.116313 15.742896 19.91991 14.398969 20.15625 12.875 L 17.1875 12.875 z M 17.40625 18 A 1.5 1.5 0 0 0 16 19.5 A 1.5 1.5 0 0 0 19 19.5 A 1.5 1.5 0 0 0 17.40625 18 z "
     id="path19" />
</svg>

<?xml version="1.0" encoding="UTF-8" standalone="no"?>
<!-- Created with Inkscape (http://www.inkscape.org/) -->
<svg id="svg2864" xmlns:rdf="http://www.w3.org/1999/02/22-rdf-syntax-ns#" xmlns="http://www.w3.org/2000/svg" height="24" width="24" version="1.1" xmlns:cc="http://creativecommons.org/ns#" xmlns:dc="http://purl.org/dc/elements/1.1/">
 <metadata id="metadata13">
  <rdf:RDF>
   <cc:Work rdf:about="">
    <dc:format>image/svg+xml</dc:format>
    <dc:type rdf:resource="http://purl.org/dc/dcmitype/StillImage"/>
   </cc:Work>
  </rdf:RDF>
 </metadata>
 <path id="path19" style="fill:#fff" d="m17.25 3a1.5 1.5 0 0 0 -1.25 1.5 1.5 1.5 0 0 0 3 0 1.5 1.5 0 0 0 -1.75 -1.5zm-4.719 1.6875c-0.647 0.0019-1.289 0.1489-2.031 0.5l1.281 2.5625c2.443-0.6899 4.575 0.8776 5.407 3.406h2.968c-0.285-1.477-0.896-2.9823-1.937-4.0935-0.727 0.3712-1.62 0.4007-2.375-0.0313-0.755-0.4317-1.18-1.2233-1.219-2.0312-0.802-0.1857-1.446-0.3144-2.094-0.3125zm-3.531 1.125c-1.265 0.8774-2.5074 2.565-2.8438 4.1563 0.9334 0.4852 1.4036 1.2362 1.4376 2.5002 0.0319 1.187-0.6893 1.958-1.3438 2.437 0.5797 1.124 1.8416 2.735 2.9375 3.25l1.2185-2.937c-1.7114-1.315-2.3389-4.177 0-6.5315l-1.406-2.875zm-4.5938 5.1565a1.5 1.5 0 0 0 -0.5624 2.843 1.5 1.5 0 1 0 1.3437 -2.687 1.5 1.5 0 0 0 -0.7813 -0.156zm12.782 1.906c-0.68 2.472-2.578 4.024-5.25 3.281l-1.188 2.782c1.422 0.464 2.242 0.516 3.812 0.093 0.046-0.809 0.49-1.561 1.25-2 0.761-0.439 1.652-0.459 2.376-0.093 0.928-1.195 1.732-2.539 1.968-4.063h-2.968zm0.218 5.125a1.5 1.5 0 0 0 -1.406 1.5 1.5 1.5 0 0 0 3 0 1.5 1.5 0 0 0 -1.594 -1.5z"/>
</svg>
